outputs/icons/editor/font_size_decrease_sharp.svg

<svg width="1200" height="1200" viewBox="0 0 1200 1200" fill="none" xmlns="http://www.w3.org/2000/svg"><g clip-path="url(#clip0_125_1472)"><path d="M49.512 950H170.511L234.011 771H516.51L579.51 950H700.51L437.512 250H312.512L49.512 950ZM270.512 669.5L372.011 380H378.012L479.512 669.5H270.512ZM1150.01 550V650H750.01V550H1150.01Z" fill="#1D1E23"/></g><defs><clipPath id="clip0_125_1472"><path width="24" fill="white" d="M0 0H1200V1200H0V0z"/></clipPath></defs></svg>

<svg xmlns="http://www.w3.org/2000/svg" width="1200" height="1200" fill="none"><g clip-path="url(#a)"><path fill="#000" d="M49.5 950h121L234 771h282.5l63 179h121l-263-700h-125zm220.999-280.5L372 380h6l101.5 289.5zM1150 550v100H750V550z"/></g><defs><clipPath id="a"><path fill="#fff" d="M0 0h1200v1200H0z"/></clipPath></defs></svg>
